X:1
T:A' Chuachag
R:Reel
B:The Athole Collection
M:C|
L:1/8
K:D
e|fedB dBAB|eeed feef|fedB dBAB|defe d2d:|
|:f|aefd eAAB|eeed feef|aefd eAAB|defe d2d:|

